X:1
T:Left Handed Fiddler, The
T:Left Handed Fiddler, The
T:composed by James Scott Skinner
C:composed by James Scott Skinner
L:1/8
M:4/4
K:A
V:1 treble 
V:1
 d | cAce{g} a2 (ed) | cAEA GBBd | cAce aefd | ecdB cAAd | cAce{g} a2 (ed) | cAEA GBBG | %7
 AcBd cedf | ecdB cAAg || a2 (Aa) caAa | caAa BcdB | a2 (Aa) caAa | BcdB cAAg | a2 (Aa) caAa | %14
 caAa BcdB | AEcA dBec | fdge aA [EA]2 || %17

